X:1
T:Title
%%score { 1 | ( 2 3 ) }
L:1/8
M:4/4
K:G
V:1 treble nm="Grand Piano"
V:2 treble 
V:3 treble 
V:1
 z4 z2[Q:1/4=100] DD | G2 G2 BGGA | G2 F4 FG | [FA]2 [FA]2 [FA][Ac][GB][FA] | [GB]6 [DG]A | %5
 B2 B2 BdcB | [CEA]2 [G,CE]4 [CEG][G,CE] | [G,B,D]2 [B,DG]2 [DGB][CFA][B,DG][A,DF] | %8
[M:3/4] [G,B,DG]6 |[M:1/4] Bc |[M:4/4] d2 d2 edcB | [Bd]2 [Ac]4 AB | c2 [Ac]2 [Bd][Ac][GB][FA] | %13
 [Ac]2 B4 D2 | E2 E2 [DF]2 [DF][DF] | [DG][DF][DG][DA] [DB]2 [Gd]2 | [Gd]2 [EGc]2 [DGB]2 [CFA]2 | %17
[M:3/4] [G,B,DG]6 |] %18
V:2
 z4 z2 [G,B,][G,B,] | [G,B,D]2 [G,B,D]2 [G,DG][K:bass][G,B,D][G,B,D][G,CD] | %2
 [A,CD]2 [A,CD]4 [A,CD][G,B,D] | [D,D]2 [D,D]2 [D,D][D,D][D,D][D,D] | [G,D]6 [B,,G,][D,F,D] | %5
 [G,D]2 [G,D]2 [G,D][G,B,D][F,A,D][G,D] | C,2 C,4 C,C, | D,2 D,2 D,D,D,D, |[M:3/4] G,,6 | %9
[M:1/4][K:treble] [G,DG][G,A,G] |[M:4/4] z4 G2 z2 | [D,D]2 [D,D]4[K:treble] [CDF][B,DG] | %12
 [A,DF]2[K:bass] [D,D]2 [D,D]2 [D,D][D,D] | [G,D]2 [G,DG]4 [B,,G,]2 | %14
 [C,G,C]2 [C,G,C]2 [C,A,]2 [C,A,][C,A,] | [B,,G,][C,A,][B,,G,][A,,F,] [G,,G,]2 [G,B,]2 | %16
 [G,B,]2 C,2 D,2 D,2 |[M:3/4] G,,6 |] %18
V:3
 x8 | x5[K:bass] x3 | x8 | x8 | x8 | x8 | x8 | x8 |[M:3/4] x6 |[M:1/4][K:treble] x2 | %10
[M:4/4] [G,B,G]2 [B,DG]2 C[B,D][A,DF][G,DG] | x6[K:treble] x2 | x2[K:bass] x6 | x8 | x8 | x8 | x8 | %17
[M:3/4] x6 |] %18

